X:29
T:The Hag at the Spinning Wheel
T:The Spinning Wheel
N:Jig apprise en répé Cunla du 12 juin 2019 sous le nom fallacieux "The Oak Tree"
Z:Gwen 2019-06-16
R:Jig
M:6/8
K:G
|: GGG B2G | BcA B3 | GGG cAG | FFF AFD |
   GGG B2G | BcA B2g | fed cAF |1 AGF G2D :|2 AGF G2c
|: BAG AFD | DED AFD | DED AFD | EFG ABc |
   BAG AFD | DED AFD | ded cAF |1 AGF G2c :|2 AGF G2D
|: GBd gba | gdB ecA | dBG cAG | FFF AFD |
   GBd gba | gdB ecA | fed cAF |1 AGF G2D :|2 AGF G2c
|: BAG Afd | Bgd Afd | Bgd AFD | EFG ABc |
   BAG AFD | DED AFD | ded cAF |1 AGF G2c :|2 AGF G2D ||

